X:589
T:Piper's Wedding, The
B:P.M. Donald Macleod's Collection, Bk.6
Z:Nigel Gatherer
L:1/8
M:6/8
K:D
a | A2d dcd | B2d A3  | A2d dcd | f2a e2a |
    A2d dcd | B2d A2g | fdd ecc | edd d2 :|
a | fdd add | ce2 A2a | fdd add | f2a e2a |
    fdd add | ce2 A2g | fdd ecc | edd d2 :|]
<end>
<start>
